X: 116
T:Corn Rigs
M:4/4
L:1/8
Q:150
C:Transcribed from Jay Ungar's "Farmer Set" version by S.C.
R:Reel
K:D
Ac|:dcde "(Slide)"f2 ed|cBcd ecA2|dcde fgef|d2 a2 a2 fe!
|dcde f2 ed|cBcd ec A2|BABc eABc|d2 dc d2 Ac:|!
d2 a2 fg a2|cBcd ec A2|dcde fgef|d2 a^g a2 Ac|!
d2 a2 fg a2|bagf edcB|ABcf eABc|d2 dc d2 Ac:|]
